picto/break-glass-here.svg

<svg class="color-immutable" width="24" height="24" viewBox="0 0 24 24" fill="none" xmlns="http://www.w3.org/2000/svg"><g clip-path="url(#a)"><path d="M0 22.5v-21C0 .675.675 0 1.5 0h21c.825 0 1.5.675 1.5 1.5v21c0 .825-.675 1.5-1.5 1.5h-21C.675 24 0 23.325 0 22.5Z" fill="#237F52"/><path d="M17.979 12.183c-.181-.258-.395-.409-.395-.409l-.736-.438-1.188-.689a.54.54 0 0 0-.143-.02.327.327 0 0 0-.293.163c-.031.051-.049.145-.051.155-.056.253.104.552.324.689l.959.573.298.183-2.134 3.707c.506.316.548.305.559.311.201.106.399.217.62.217l2.006.007L21 18.53v-3.418l-1.734-1.022c0 .001-1.186-1.762-1.287-1.907Z" fill="#fff"/><path d="M20.642 18.567v.629a.251.251 0 0 1-.251.251H3.608a.251.251 0 0 1-.251-.251V6.608c0-.136.115-.251.251-.251h16.784c.138 0 .251.112.251.251v8.045l.357.21V6.608A.61.61 0 0 0 20.392 6H3.608A.61.61 0 0 0 3 6.608v12.588a.61.61 0 0 0 .608.608h16.784a.61.61 0 0 0 .608-.608v-.416l-.109-.065-.249-.148Z" fill="#fff"/><path d="M19.266 14.091s-1.186-1.763-1.288-1.908a1.84 1.84 0 0 0-.395-.409l-.736-.438-1.188-.689a.54.54 0 0 0-.143-.02.327.327 0 0 0-.293.163c-.031.051-.049.145-.051.155-.056.253.104.552.324.689l.959.573.298.183-2.134 3.707c.506.316.548.305.559.311.201.106.399.217.62.217l2.006.007 2.839 1.686.357.212v-3.418l-.358-.211-1.376-.81ZM16.833 11.079l.305.175.704-1.229 1.417.816.856-1.484-2.641-1.512-2.266.67 1.435.83-.698 1.219-.002.004.89.511ZM13.787 16.346l.337.194-.337-.194Z" fill="#fff"/><path d="m15.829 12.079-.189-.113a.621.621 0 0 1-.482.715.625.625 0 0 1 .041.685.626.626 0 0 1-.503.307c.003.006.007.011.009.018a.628.628 0 0 1-.031.566.625.625 0 0 1-.505.306c.008.014.017.028.023.043a.625.625 0 0 1-.886.788l-.105-.063-.29.506.876.507.337.194 2.329-4.084-.624-.375ZM8.297 8.319H6.038v-.358h2.174l1.311-.663 1.44.382-.092.347-1.308-.348-1.266.64ZM14.55 9.183l-.797-.864h-.725v-.358h.882l.903.979-.263.243ZM7.963 9.328l-.134-.333 1.566-.631.746.299.756-.35.151.326-.897.414-.756-.303-1.432.578ZM11.188 13.401l-.633-1.726.937-1.208.171-1.328.356.045-.185 1.426-.874 1.128.564 1.539-.336.124Z" fill="#fff"/><path d="m14.341 13.592-.107-.063-.012-.007-.188-.113-.546-.327a.407.407 0 0 0-.586.514.403.403 0 0 0 .16.183l.554.332.188.113.026.016.101.06a.41.41 0 0 0 .558-.146.407.407 0 0 0 .02-.371.395.395 0 0 0-.168-.191ZM14.064 13.173l-.187-.113-.554-.332a.406.406 0 0 1-.134-.561.41.41 0 0 1 .561-.135l.546.327.187.112.264.159.118.071a.41.41 0 0 1-.206.761.407.407 0 0 1-.206-.056l-.112-.067-.277-.166ZM14.822 12.428l-.06-.036-.187-.112-.554-.332a.409.409 0 0 1 .427-.695l.546.327.187.113.052.031c.009.005.017.012.026.018a.404.404 0 0 1 .121.54.407.407 0 0 1-.353.202.412.412 0 0 1-.17-.041c-.012-.006-.024-.009-.035-.015ZM13.974 15.065a.407.407 0 0 1-.559.146l-.109-.065-.019-.011-.188-.112-.142-.085a.406.406 0 1 1 .427-.694l.134.08.188.113.005.003.114.068a.409.409 0 0 1 .149.557Z" fill="#fff"/><path d="M12.589 8.14a.617.617 0 1 0-1.234 0 .617.617 0 0 0 1.234 0Z" fill="#EB0000"/></g><defs><clipPath id="a"><path fill="#fff" d="M0 0h24v24H0z"/></clipPath></defs></svg>

<svg class="color-immutable" width="24" height="24" viewBox="0 0 24 24" fill="none" xmlns="http://www.w3.org/2000/svg"><path d="M0 22.5V1.5C0 0.675 0.675 0 1.5 0H22.5C23.325 0 24 0.675 24 1.5V22.5C24 23.325 23.325 24 22.5 24H1.5C0.675 24 0 23.325 0 22.5Z" fill="#237F52"/><path d="M17.979 12.183C17.798 11.925 17.584 11.774 17.584 11.774L16.848 11.336L15.66 10.647C15.609 10.633 15.561 10.627 15.517 10.627C15.388 10.627 15.29 10.684 15.224 10.79C15.193 10.841 15.175 10.935 15.173 10.945C15.117 11.198 15.277 11.497 15.497 11.634L16.456 12.207L16.754 12.39L14.62 16.097C15.126 16.413 15.168 16.402 15.179 16.408C15.38 16.514 15.578 16.625 15.799 16.625L17.805 16.632L21 18.53V15.112L19.266 14.09C19.266 14.091 18.08 12.328 17.979 12.183Z" fill="white"/><path d="M20.642 18.567V19.196C20.642 19.334 20.53 19.447 20.391 19.447H3.608C3.47 19.447 3.357 19.335 3.357 19.196V6.608C3.357 6.472 3.472 6.357 3.608 6.357H20.392C20.53 6.357 20.643 6.469 20.643 6.608V14.653L21 14.863V6.608C21 6.274 20.726 6 20.392 6H3.608C3.274 6 3 6.274 3 6.608V19.196C3 19.531 3.274 19.804 3.608 19.804H20.392C20.727 19.804 21 19.53 21 19.196V18.78L20.891 18.715L20.642 18.567Z" fill="white"/><path d="M19.266 14.091C19.266 14.091 18.08 12.328 17.978 12.183C17.797 11.925 17.583 11.774 17.583 11.774L16.847 11.336L15.659 10.647C15.608 10.633 15.56 10.627 15.516 10.627C15.387 10.627 15.289 10.684 15.223 10.79C15.192 10.841 15.174 10.935 15.172 10.945C15.116 11.198 15.276 11.497 15.496 11.634L16.455 12.207L16.753 12.39L14.619 16.097C15.125 16.413 15.167 16.402 15.178 16.408C15.379 16.514 15.577 16.625 15.798 16.625L17.804 16.632L20.643 18.318L21 18.53V15.112L20.642 14.901L19.266 14.091Z" fill="white"/><path d="M16.833 11.079L17.138 11.254L17.842 10.025L19.259 10.841L20.115 9.357L17.474 7.845L15.208 8.515L16.643 9.345L15.945 10.564L15.943 10.568L16.833 11.079Z" fill="white"/><path d="M13.787 16.346L14.124 16.54L13.787 16.346Z" fill="white"/><path d="M15.829 12.079L15.64 11.966C15.665 12.11 15.639 12.26 15.565 12.388C15.476 12.54 15.327 12.645 15.158 12.681C15.186 12.718 15.211 12.757 15.23 12.8C15.311 12.983 15.299 13.194 15.199 13.366C15.094 13.546 14.903 13.661 14.696 13.673C14.699 13.679 14.703 13.684 14.705 13.691C14.785 13.872 14.774 14.083 14.674 14.257C14.568 14.438 14.376 14.552 14.169 14.563C14.177 14.577 14.186 14.591 14.192 14.606C14.272 14.788 14.26 14.999 14.16 15.172C14.049 15.362 13.843 15.48 13.622 15.48C13.512 15.48 13.403 15.45 13.306 15.394L13.201 15.331L12.911 15.837L13.787 16.344L14.124 16.538L16.453 12.454L15.829 12.079Z" fill="white"/><path d="M8.29696 8.319H6.03796V7.961H8.21196L9.52296 7.298L10.963 7.68L10.871 8.027L9.56296 7.679L8.29696 8.319Z" fill="white"/><path d="M14.55 9.183L13.753 8.319H13.028V7.961H13.91L14.813 8.94L14.55 9.183Z" fill="white"/><path d="M7.96298 9.328L7.82898 8.995L9.39498 8.364L10.141 8.663L10.897 8.313L11.048 8.639L10.151 9.053L9.39498 8.75L7.96298 9.328Z" fill="white"/><path d="M11.1881 13.401L10.5551 11.675L11.4921 10.467L11.6631 9.13901L12.0191 9.18401L11.8341 10.61L10.9601 11.738L11.5241 13.277L11.1881 13.401Z" fill="white"/><path d="M14.341 13.592L14.234 13.529L14.222 13.522L14.034 13.409L13.488 13.082C13.421 13.041 13.347 13.022 13.275 13.022C13.138 13.022 13.004 13.091 12.927 13.217C12.854 13.335 12.849 13.477 12.902 13.596C12.934 13.669 12.988 13.734 13.062 13.779L13.616 14.111L13.804 14.224L13.83 14.24L13.931 14.3C13.996 14.338 14.066 14.356 14.136 14.356C14.276 14.356 14.413 14.283 14.489 14.154C14.557 14.036 14.561 13.899 14.509 13.783C14.476 13.703 14.418 13.637 14.341 13.592Z" fill="white"/><path d="M14.064 13.173L13.877 13.06L13.323 12.728C13.25 12.683 13.196 12.619 13.164 12.546C13.111 12.427 13.116 12.286 13.189 12.167C13.266 12.042 13.4 11.972 13.537 11.972C13.61 11.972 13.684 11.991 13.75 12.032L14.296 12.359L14.483 12.471L14.747 12.63L14.865 12.701C14.942 12.746 14.999 12.812 15.032 12.888C15.083 13.004 15.08 13.142 15.012 13.259C14.936 13.389 14.8 13.462 14.659 13.462C14.589 13.462 14.518 13.444 14.453 13.406L14.341 13.339L14.064 13.173Z" fill="white"/><path d="M14.822 12.428L14.762 12.392L14.575 12.28L14.021 11.948C13.948 11.903 13.894 11.839 13.861 11.766C13.809 11.647 13.814 11.506 13.887 11.387C13.964 11.262 14.098 11.193 14.235 11.193C14.308 11.193 14.382 11.212 14.448 11.253L14.994 11.58L15.181 11.693L15.233 11.724C15.242 11.729 15.25 11.736 15.259 11.742C15.323 11.786 15.372 11.845 15.401 11.911C15.452 12.027 15.449 12.164 15.38 12.282C15.304 12.412 15.168 12.484 15.027 12.484C14.969 12.484 14.912 12.468 14.857 12.443C14.845 12.437 14.833 12.434 14.822 12.428Z" fill="white"/><path d="M13.974 15.065C13.898 15.195 13.762 15.267 13.621 15.267C13.551 15.267 13.48 15.249 13.415 15.211L13.306 15.146L13.287 15.135L13.099 15.023L12.957 14.938C12.884 14.893 12.83 14.829 12.798 14.756C12.745 14.637 12.75 14.496 12.823 14.377C12.9 14.252 13.034 14.183 13.171 14.183C13.244 14.183 13.318 14.203 13.384 14.244L13.518 14.324L13.706 14.437L13.711 14.44L13.825 14.508C13.903 14.553 13.959 14.62 13.993 14.695C14.046 14.81 14.042 14.947 13.974 15.065Z" fill="white"/><path d="M12.589 8.14C12.589 7.8 12.313 7.523 11.973 7.523C11.632 7.523 11.356 7.799 11.356 8.14C11.356 8.481 11.632 8.757 11.973 8.757C12.313 8.757 12.589 8.481 12.589 8.14Z" fill="#EB0000"/></svg>
